X:1
T:Blumenlieder
T:Flieder
T:Blumenlieder 
T:4. Flieder
T:Mathilde Kralik 
T:Irene Zoepf 
T:Creative Commons copyright waiver (CC0 1.0 Universal)
T:Creative Commons copyright waiver (CC0 1.0 Universal)
T:Creative Commons copyright waiver (CC0 1.0 Universal)
T:Creative Commons copyright waiver (CC0 1.0 Universal)
C:Mathilde Kralik (Mathilde Aloisia Kralik von Meyrswalden)
Z:Irene Zoepf
Z:Creative Commons copyright waiver (CC0 1.0 Universal)
%%score ( 1 2 ) 3
L:1/8
Q:1/4=105
M:6/8
K:F#
V:1 treble nm="Gesang\nVoice"
V:2 treble 
V:3 bass nm="Piano"
V:1
"^Leidenschaftlich" z6 | z6 | d3 d2 d | d3- d e f | g3- g2 d | ^B3 G3 | c2 c _d d d | =f6 | z6 | %9
w: ||Lass mir den|blü- * hen- den|Flie- * der-|strauss im|Zim- mer steh'n ü- ber|Nacht.||
 z6 | z6 | z6 | z6 | z6 | z6 | z6 | z6 | z6 | z6 | z6 | z6 | z6 | z6 | z6 | z6 | z6 | z6 | z6 | %28
w: |||||||||||||||||||
 z6 | z6 | z6 | z6 | z6 | z6 | z6 | z6 | z6 | z6 | z6 | z6 | g3- g2 d | ^B2 G- G2 G | z6 | z6 | %44
w: ||||||||||||*  Flie- * der-|duft kann * ich|||
 z6 | z6 | z6 | z6 | z6 | z6 | z6 | z6 | z6 | z6 | z6 | z6 | z6 | z6 |] %58
w: ||||||||||||||
V:2
 x6 | x6 | x6 | x6 | x6 | x6 | x6 | x6 | x6 | x6 | x6 | x6 | x6 | x6 | x6 | x6 | x6 | x6 | x6 | %19
w: |||||||||||||||||||
 x6 | x6 | x6 | x6 | x6 | x6 | x6 | x6 | x6 | x6 | x6 | x6 | x6 | x6 | x6 | x6 | x6 | x6 | x6 | %38
w: |||||||||||||||||||
 x6 | x6 | g2- g/ d/ ^B3- | B2 x4 | x6 | x6 | x6 | x6 | x6 | x6 | x6 | x6 | x6 | x6 | x6 | x6 | %54
w: ||Flie- * der- duft|_|||||||||||||
 x6 | x6 | x6 | x6 |] %58
w: ||||
V:3
 z6 | z6 | z6 | z6 | z6 | z6 | z6 | z6 | z6 | z6 | z6 | z6 | z6 | z6 | z6 | z6 | z6 | z6 | z6 | %19
 z6 | z6 | z6 | z6 | z6 | z6 | z6 | z6 | z6 | z6 | z6 | z6 | z6 | z6 | z6 | z6 | z6 | z6 | z6 | %38
 z6 | z6 | z6 | z6 | z6 | z6 | z6 | z6 | z6 | z6 | z6 | z6 | z6 | z6 | z6 | %53
"_*  The small notes in m.41 are a hand-written correction on the published edition" z6 | z6 | z6 | %56
 z6 | z6 |] %58

